X: 1
T: Trent Waters
R: jig, slow march
Z: 2008 John Chambers <jc@trillian.mit.edu>
M: 6/8
L: 1/8
K: Em
A \
| "Em"B2E EFE | "D"DEF GFE | "Em"B2E EFE | "D"DEF "G"G2A \
| "Em"B2E EFE | "D"DEF GFE | "G"BcB "D"AGF | "Em"GEE E2 :|
|: A \
| "Em"ABe e2f | "D"gfe fed | "Am"ABe e2f | "D"gfe f2e \
| "Em"gag "D"fgf | "C"efe "Am"dBA | "B7"BcB AGF | "Em"GEE E2 :|
